static/img/starlake_icon.svg

<svg fill="none" height="95" viewBox="0 0 95 95" width="95" xmlns="http://www.w3.org/2000/svg"><g fill="#abb8ff"><path d="m57.9118.810147c-.1481.441903.7406 4.124383 2.0735 8.101473 1.333 3.97708 2.4438 7.65958 2.4438 8.10148 0 .5155-3.8508 2.946-9.3308 5.9656-5.1097 2.7987-9.3308 5.4501-9.3308 5.892 0 .6629 2.2956.9574 10.5157 1.3257l10.5157.5155v3.3143c.3702 11.563.8886 17.455 1.7032 17.455.4443 0 3.0362-3.9035 5.7762-8.7643 2.666-4.7873 5.1838-8.9853 5.4801-9.3536.4443-.4419 2.814 0 8.6643 1.9149 5.1098 1.6203 8.146 2.4305 8.5162 2.0622.4444-.4419-1.5551-3.3879-5.4059-8.396l-6.0725-7.8069 3.999-7.9542c4.9616-9.94271 4.8135-10.16366-5.1838-5.00818-3.9249 1.98858-7.4055 3.68248-7.7757 3.60888-.2962 0-3.999-2.65143-8.146-5.89202s-7.7016-5.89198-7.8497-5.89198c-.1482 0-.4444.441899-.5925.883797z"/><path d="m21.5512 53.5435c-8.5903 9.1325-15.47736 16.7184-15.2552 16.9394.22216.2209 7.8498-6.6285 17.0325-15.1719 12.5892-11.7103 16.5881-15.761 16.44-16.7184-.1481-.6629-.7405-1.2521-1.333-1.3257-.9627-.1473-5.0356 3.8297-16.8103 16.3502z"/><path d="m51.7653 39.2552c-5.0357 4.64-52.060124 55.2373-51.76390656 55.6792.14810856.2946 1.33297656-.4419 2.51784656-1.473 1.18487-1.1047 12.66326-11.7839 25.54876-23.7152 29.6957-27.4713 29.7698-27.6186 29.3255-29.3126-.5184-1.6203-.8146-1.9885-2.5179-2.5041-.9627-.2946-1.7773 0-3.1103 1.2521z"/><path d="m39.9166 71.8086c-8.5903 9.1326-15.4773 16.7185-15.2552 16.9394.2222.221 7.8498-6.6284 17.0325-15.1718 12.5893-11.7103 16.5882-15.7611 16.4401-16.7185-.1481-.6629-.7406-1.2521-1.333-1.3257-.9627-.1473-5.0357 3.8298-16.8103 16.3502z"/></g></svg>

<svg width="95" height="95" viewBox="0 0 95 95" fill="none" xmlns="http://www.w3.org/2000/svg">
<path d="M57.9118 0.810147C57.7637 1.25205 58.6524 4.93453 59.9853 8.91162C61.3183 12.8887 62.4291 16.5712 62.4291 17.0131C62.4291 17.5286 58.5783 19.9591 53.0983 22.9787C47.9886 25.7774 43.7675 28.4288 43.7675 28.8707C43.7675 29.5336 46.0631 29.8281 54.2832 30.1964L64.7989 30.7119V34.0262C65.1691 45.5892 65.6875 51.4812 66.5021 51.4812C66.9464 51.4812 69.5383 47.5777 72.2783 42.7169C74.9443 37.9296 77.4621 33.7316 77.7584 33.3633C78.2027 32.9214 80.5724 33.3633 86.4227 35.2782C91.5325 36.8985 94.5687 37.7087 94.9389 37.3404C95.3833 36.8985 93.3838 33.9525 89.533 28.9444L83.4605 21.1375L87.4595 13.1833C92.4211 3.24059 92.273 3.01964 82.2757 8.17512C78.3508 10.1637 74.8702 11.8576 74.5 11.784C74.2038 11.784 70.501 9.13257 66.354 5.89198C62.207 2.65139 58.6524 0 58.5043 0C58.3561 0 58.0599 0.441899 57.9118 0.883797V0.810147Z" fill="#ABB8FF"/>
<path d="M21.5512 53.5435C12.9609 62.676 6.07384 70.2619 6.296 70.4829C6.51816 70.7038 14.1458 63.8544 23.3285 55.311C35.9177 43.6007 39.9166 39.55 39.7685 38.5926C39.6204 37.9297 39.028 37.3405 38.4355 37.2669C37.4728 37.1196 33.3999 41.0966 21.6252 53.6171L21.5512 53.5435Z" fill="#ABB8FF"/>
<path d="M51.7653 39.2552C46.7296 43.8952 -0.294824 94.4925 0.00139344 94.9344C0.149502 95.229 1.33437 94.4925 2.51924 93.4614C3.70411 92.3567 15.1825 81.6775 28.068 69.7462C57.7637 42.2749 57.8378 42.1276 57.3935 40.4336C56.8751 38.8133 56.5789 38.4451 54.8756 37.9295C53.9129 37.6349 53.0983 37.9295 51.7653 39.1816V39.2552Z" fill="#ABB8FF"/>
<path d="M39.9166 71.8086C31.3263 80.9412 24.4393 88.5271 24.6614 88.748C24.8836 88.969 32.5112 82.1196 41.6939 73.5762C54.2832 61.8659 58.2821 57.8151 58.134 56.8577C57.9859 56.1948 57.3934 55.6056 56.801 55.532C55.8383 55.3847 51.7653 59.3618 39.9907 71.8822L39.9166 71.8086Z" fill="#ABB8FF"/>
</svg>
